X:1
T:Title
%%score { ( 1 3 ) | ( 2 4 ) }
L:1/8
M:6/8
K:Eb
V:1 treble nm="Grand Piano"
V:3 treble 
V:2 bass 
V:4 bass 
V:1
 z3 z2[Q:1/4=90] E | GGG GFE | BBB GFE | [DF][DF][DF] [DF][DE][DF] | GBB B2 E | GGG GFE | BBB GFE | %7
 [A,DF][A,DF][A,DF] [A,DF][B,DG][A,DF] | [G,E]6 | [Ec]3- [Ec]de | [GB]3 [EG]3 | .[DA]6 | [EG]3 B3 | %13
 ccc cde | [GB][GB][GB] [GB][B,EG][G,E] | [B,EG]2 [B,EG] [A,DF]2 [A,DF] | %16
[M:5/8] [G,E]-[G,E]- [G,E]3 |] %17
V:2
 z3 z2 [E,G,] | [E,B,E][E,B,E][E,B,E] [E,B,E][E,A,E][E,G,] | %2
 [E,G,E][E,G,E][E,G,E] [E,B,E][E,A,E][E,G,] | [B,,A,][B,,A,][B,,A,] [B,,A,][B,,G,][B,,A,] | %4
 [E,B,E][E,G,E][E,G,E] [E,G,E]2 [E,G,] | [E,B,E][E,B,E][E,B,E] [E,B,E][E,A,E][E,G,] | %6
 [E,G,E][E,G,E][E,G,E] [E,B,E][E,A,E][E,G,] | B,,B,,B,, B,,B,,B,, | E,6 | A,A,A, A,[A,B,E][A,CE] | %10
 [E,E]E,E, E,2 E, | B,,B,,B,, B,,B,,B,, | z3 E3 | [A,E][A,E][A,E] [A,E][A,B,E][A,CE] | %14
 [E,E][E,E][E,E] [E,E]E,E, | B,,2 B,, B,,2 B,, |[M:5/8] E,-E,- E,3 |] %17
V:3
 x6 | x6 | x6 | x6 | x6 | x6 | x6 | x6 | x6 | x6 | z EE B,2 B, | B,B,B, B,[B,DB][B,DF] | %12
 B,B,B, z2 G, | x6 | x6 | x6 |[M:5/8] x5 |] %17
V:4
 x6 | x6 | x6 | x6 | x6 | x6 | x6 | x6 | x6 | x6 | x6 | x6 | E,E,E, [E,G,]2 E, | x6 | x6 | x6 | %16
[M:5/8] x5 |] %17

